X:419
T:Fairhaired Mary
T:Fairheaded Mary
R:reel
H:See also "Molly Bawn", #380, #703
D:Bothy Band: Old Hag You've Killed Me
Z:id:hn-reel-419
M:C|
K:Edor
EBBA B2AG|(3FED AD BDAF|EBBA ~B3c|1 dBAd BEED:|2 dBAd BE~E2||
eB~B2 ~e2fe|dB~B2 d2Bd|eB~B2 e2fe|dBAF GE~E2|
eB~B2 ~e2fe|dB~B2 dcde|~f3e defe|dBAF BFAF||
